X:229 
T:Rough Road (reel) , The
T:Newtown Bridge
B:CRE3.183 (Bothar Garbh)
C:Paddy O'Brien (Tipp)
F:file ID: cre.3/229rough
N:CRE has this tune twice, once in Volume 2 (as "Sailor's
Farewell") and here (as "The Rough Road"). Kind of harsh
treatment for poor Paddy O'Brien, who unlike many of his
fellow tune composers actually took the trouble to name
them!
R:reel
L:1/8
%Q:180
M:C
K:G
A|DGG2 DGBd|gBB2 eBdB|(3ABA (3BAG AcBA|GBAF GFEA|
DGG2 DGBd|gBB2 eBdB|GABd gBdc|(3BcB Ac BGG:|
B|dggf gGBd|gbaf gfed|eaag abag|eaag edBc|
dggf gGBd|gbaf gedB|GABd gBdc|(3BcB Ac BGG:|

%%%

